src/lib/packages/icons/src/assets/filled/carrot.svg

<svg width="24" height="24" viewBox="0 0 24 24" fill="none" xmlns="http://www.w3.org/2000/svg">
<path d="M16.27 9.63025C17.17 11.3502 16.92 13.5303 15.47 14.9803C14.57 15.8903 13.68 16.6702 12.79 17.3702C12.67 17.4602 12.5 17.4502 12.39 17.3402L9.52001 14.4702C9.23001 14.1802 8.75001 14.1802 8.46001 14.4702C8.17001 14.7602 8.17001 15.2402 8.46001 15.5302L11.07 18.1403C11.21 18.2803 11.18 18.5102 11.02 18.6102C8.96001 19.9002 6.79001 20.7202 4.21001 21.2202C4.13001 21.2402 4.05002 21.2402 3.97002 21.2402C3.65002 21.2402 3.33003 21.1102 3.10003 20.8802C2.81003 20.5902 2.68003 20.1802 2.76003 19.7702C3.00003 18.5602 3.31001 17.4402 3.71001 16.3702C3.79001 16.1602 4.05001 16.1102 4.21001 16.2702L5.46001 17.5202C5.61001 17.6702 5.80001 17.7402 5.99001 17.7402C6.18001 17.7402 6.37001 17.6702 6.52001 17.5202C6.81001 17.2302 6.81001 16.7502 6.52001 16.4602L4.69002 14.6302C4.60002 14.5402 4.57003 14.3902 4.63003 14.2702C5.48003 12.6302 6.59002 11.0903 8.03002 9.54025C8.15002 9.41025 8.35002 9.41024 8.47002 9.53024L10.46 11.5202C10.61 11.6702 10.8 11.7402 10.99 11.7402C11.18 11.7402 11.37 11.6702 11.52 11.5202C11.81 11.2302 11.81 10.7502 11.52 10.4602L9.56002 8.50024C9.43002 8.37024 9.44002 8.15025 9.59002 8.04025C11 7.04025 12.85 6.93025 14.36 7.72025C13.46 6.27025 14.36 3.89023 15.27 2.99023C16.25 3.97023 17.22 6.65025 15.93 8.04025C17.32 6.76025 20.01 7.73026 20.98 8.70026C20.08 9.60026 17.7 10.5102 16.25 9.61023L16.27 9.63025Z" fill="currentColor"/>
</svg>

<svg xmlns="http://www.w3.org/2000/svg" width="24" height="24" fill="none"><path fill="currentColor" d="M16.27 9.63c.9 1.72.65 3.9-.8 5.35-.9.91-1.79 1.69-2.68 2.39-.12.09-.29.08-.4-.03l-2.87-2.87a.754.754 0 0 0-1.06 0c-.29.29-.29.77 0 1.06l2.61 2.61c.14.14.11.37-.05.47-2.06 1.29-4.23 2.11-6.81 2.61-.08.02-.16.02-.24.02-.32 0-.64-.13-.87-.36-.29-.29-.42-.7-.34-1.11.24-1.21.55-2.33.95-3.4a.3.3 0 0 1 .5-.1l1.25 1.25c.15.15.34.22.53.22s.38-.07.53-.22c.29-.29.29-.77 0-1.06l-1.83-1.83a.319.319 0 0 1-.06-.36c.85-1.64 1.96-3.18 3.4-4.73.12-.13.32-.13.44-.01l1.99 1.99c.15.15.34.22.53.22s.38-.07.53-.22c.29-.29.29-.77 0-1.06L9.56 8.5a.305.305 0 0 1 .03-.46c1.41-1 3.26-1.11 4.77-.32-.9-1.45 0-3.83.91-4.73.98.98 1.95 3.66.66 5.05 1.39-1.28 4.08-.31 5.05.66-.9.9-3.28 1.81-4.73.91l.02.02Z"/></svg>
